src/assets/icons/hide.svg

<?xml version="1.0" encoding="UTF-8"?>
<svg width="24px" height="24px" viewBox="0 0 24 24" version="1.1" xmlns="http://www.w3.org/2000/svg" xmlns:xlink="http://www.w3.org/1999/xlink">
    <title>椭圆形 2</title>
    <g id="扩展程序" stroke="none" stroke-width="1" fill="none" fill-rule="evenodd" opacity="0.5">
        <g id="解锁页" transform="translate(-305.000000, -325.000000)" fill="#6E7585" fill-rule="nonzero">
            <g id="编组-2备份" transform="translate(30.000000, 312.000000)">
                <g id="椭圆形-2" transform="translate(275.000000, 13.000000)">
                    <path d="M12,4 C13.7551774,4 15.3917427,4.42082808 16.9096957,5.26248423 L15.4237904,6.74881391 C14.3443834,6.24554701 13.2056525,6 12,6 C9.15916824,6 6.69459345,7.36136539 4.50827887,10.2281463 L4.28309698,10.5300858 L4.05146486,10.8543494 C3.57061366,11.5424277 3.57061336,12.4575574 4.05146411,13.145636 C4.79341287,14.2073356 5.56665693,15.0882677 6.37521977,15.7948787 L4.96055145,17.2116306 C4.06243741,16.410716 3.21295378,15.4372639 2.41210058,14.2912743 C1.49221396,12.9749527 1.45221943,11.2431581 2.29211674,9.89070892 L2.41210206,9.70870999 L2.65536977,9.3679739 C5.26591776,5.78932463 8.3807945,4 12,4 Z M14.8293257,12.9999111 C14.5280459,13.8523961 13.8523961,14.5280459 12.9999111,14.8293257 L10.0568126,17.7719116 C10.6848694,17.9246602 11.3321681,18 12,18 C14.8408318,18 17.3054066,16.6386346 19.4917211,13.7718537 L19.716903,13.4699142 L19.9485351,13.1456506 C20.4293863,12.4575723 20.4293866,11.5424426 19.9485359,10.854364 C19.5203916,10.2417062 19.0818262,9.68924244 18.6320666,9.1957339 Z M12,9 C12.3513419,9 12.6885773,9.06039686 13.0018902,9.17137452 L9.17067428,12.9999111 C9.06014282,12.6871573 9,12.3506022 9,12 C9,10.3431458 10.3431458,9 12,9 Z M7.34314575,20.4852814 C6.95262146,20.8758057 6.31945648,20.8758057 5.92893219,20.4852814 C5.5384079,20.0947571 5.5384079,19.4615921 5.92893219,19.0710678 L20.0710678,4.92893219 C20.4615921,4.5384079 21.0947571,4.5384079 21.4852814,4.92893219 C21.8758057,5.31945648 21.8758057,5.95262146 21.4852814,6.34314575 L20.0466338,7.7809216 C20.5789799,8.35756363 21.0927351,9.00016498 21.5878994,9.70872566 C22.507786,11.0250473 22.5477806,12.7568419 21.7078833,14.1092911 L21.5878979,14.29129 L21.3446302,14.6320261 C18.7340822,18.2106754 15.6192055,20 12,20 C10.7606706,20 9.5804784,19.7901852 8.4594234,19.3705555 L7.34314575,20.4852814 Z" id="椭圆形"></path>
                </g>
            </g>
        </g>
    </g>
</svg>

<svg width="24" height="24" xmlns="http://www.w3.org/2000/svg"><path d="M12 4c1.755 0 3.392.42 4.91 1.262L15.424 6.75A7.992 7.992 0 0 0 12 6c-2.84 0-5.305 1.361-7.492 4.228l-.225.302-.232.324a2 2 0 0 0 0 2.292c.742 1.061 1.516 1.942 2.324 2.649l-1.414 1.417c-.899-.801-1.748-1.775-2.549-2.92a4 4 0 0 1-.12-4.401l.12-.182.243-.341C5.265 5.789 8.381 4 12 4zm2.83 9A3.008 3.008 0 0 1 13 14.83l-2.943 2.942A8.19 8.19 0 0 0 12 18c2.84 0 5.305-1.361 7.492-4.228l.225-.302.232-.324a2 2 0 0 0 0-2.292 16.429 16.429 0 0 0-1.317-1.658zM12 9c.351 0 .689.06 1.002.171L9.17 13A3 3 0 0 1 12 9zM7.343 20.485a1 1 0 1 1-1.414-1.414L20.07 4.93a1 1 0 0 1 1.414 1.414l-1.438 1.438c.532.577 1.046 1.22 1.54 1.928a4 4 0 0 1 .12 4.4l-.12.182-.242.341C18.735 18.211 15.619 20 12 20c-1.24 0-2.42-.21-3.54-.63l-1.117 1.115z" fill="#6E7585" fill-rule="nonzero" opacity=".5"/></svg>
